svgs/light/comment-arrow-up.svg

<svg xmlns="http://www.w3.org/2000/svg" viewBox="0 0 512 512"><!-- Font Awesome Pro 6.0.0-alpha2 by @fontawesome - https://fontawesome.com License - https://fontawesome.com/license (Commercial License) --><path d="M267.312 132.688C264.187 129.562 260.094 128 256 128S247.812 129.562 244.687 132.688L164.687 212.688C158.437 218.938 158.437 229.063 164.687 235.312S181.062 241.562 187.312 235.312L240 182.625V320C240 328.844 247.156 336 256 336S272 328.844 272 320V182.625L324.687 235.312C330.937 241.562 341.062 241.562 347.312 235.312S353.562 218.937 347.312 212.688L267.312 132.688ZM256.033 32C114.678 32 0.068 125.125 0.068 240C0.068 287.625 19.941 331.25 52.935 366.25C38.062 405.75 7.066 439.125 6.566 439.5C-0.057 446.5 -1.807 456.75 1.943 465.5C5.816 474.25 14.316 480 23.939 480C85.431 480 133.926 454.25 163.047 433.75C192.043 442.75 223.289 448 256.033 448C397.39 448 512 354.875 512 240S397.39 32 256.033 32ZM256.033 416C227.787 416 199.791 411.75 172.795 403.25C163.279 400.182 152.873 401.789 144.726 407.588L144.674 407.625C121.678 423.875 86.181 442.875 42.062 447.25C54.06 432.125 71.808 406.75 82.806 377.625L82.935 377.285C87.219 366.014 84.726 353.287 76.506 344.463L76.308 344.25C47.312 313.75 32.064 277.625 32.064 240C32.064 143 132.551 64 256.033 64C379.517 64 480.004 143 480.004 240S379.517 416 256.033 416Z"/></svg>

<svg xmlns="http://www.w3.org/2000/svg" viewBox="0 0 512 512"><!--! Font Awesome Pro 6.3.0 by @fontawesome - https://fontawesome.com License - https://fontawesome.com/license (Commercial License) Copyright 2023 Fonticons, Inc. --><path d="M267.3 132.7C264.2 129.6 260.1 128 256 128S247.8 129.6 244.7 132.7l-80 80c-6.25 6.25-6.25 16.38 0 22.62s16.38 6.25 22.62 0L240 182.6V320c0 8.844 7.156 16 16 16s16-7.156 16-16V182.6l52.69 52.69c6.25 6.25 16.38 6.25 22.62 0s6.25-16.38 0-22.62L267.3 132.7zM256 32C114.7 32 .0273 125.1 .0273 240c0 47.63 19.91 91.25 52.91 126.3c-14.87 39.5-45.87 72.88-46.37 73.25c-6.623 7-8.373 17.25-4.623 26C5.816 474.3 14.38 480 24 480c61.49 0 109.1-25.75 139.1-46.25C192.1 442.8 223.3 448 256 448C397.4 448 512 354.9 512 240S397.4 32 256 32zM256 416c-28.25 0-56.24-4.25-83.24-12.75c-9.516-3.068-19.92-1.461-28.07 4.338c-22.1 16.25-58.54 35.29-102.7 39.66c11.1-15.12 29.75-40.5 40.74-69.63l.1289-.3398c4.283-11.27 1.791-23.1-6.43-32.82C47.51 313.1 32.06 277.6 32.06 240c0-97 100.5-176 223.1-176c123.5 0 223.1 79 223.1 176S379.5 416 256 416z"/></svg>
